X:1
T:Bridgman, CM
T:Bridgman, CM
T:Arr. from Beethoven by George Kingsley, 1853
T:Public Domain Courtesy of the Cyber Hymnal™
C:Arr. from Beethoven by George Kingsley, 1853
Z:Public Domain
Z:Courtesy of the Cyber Hymnal™
%%score ( 1 2 ) ( 3 4 )
L:1/8
Q:1/4=120
M:3/4
K:G
V:1 treble 
V:2 treble 
V:3 bass 
V:4 bass 
V:1
 D2 | [DG]4 [DG]2 | [GB]4 [Gd]2 | (c3 B) (AF) | [DF]4 [DF]2 | (G2 [FA]2) [GB]2 | c3 (z d) [GB]2 | %7
 [FA]4 [FA]2 | (B3 G) (dB) | [FA]4 [FA]2 | (B3 G) (dB) | [FA]4 A[^GB] | c2 d2 [Ae]2 | %13
 (G3 A) [DF]2 | [DG]4 |] %15
V:2
 D2 | x6 | x6 | F4 D2 | x6 | G2 x4 | A2 F2 x3 | x6 | G4 G2 | x6 | G4 G2 | x4 A x | A4 x2 | D4 x2 | %14
 x4 |] %15
V:3
 [G,B,]2 | [G,B,]4 [G,B,]2 | [G,D]4 [G,B,]2 | [D,A,]4 (CB,) | [D,A,]4 [CD]2 | D4 [G,D]2 | %6
 D4 [G,D]2 x | [D,D]4 [D,D]2 | (D3 B,) (B,D) | [D,D]4 [D,D]2 | (D3 B,) (B,D) | [D,D]4 E2 | %12
 E4 [C,E]2 | (B,3 C) [D,A,]2 | [G,,B,]4 |] %15
V:4
 x2 | x6 | x6 | x4 D,2 | x6 | (B,2 A,2) x2 | (F,2 D,2) x3 | x6 | G,4 G,2 | x6 | G,4 G,2 | %11
 x4 (C,B,,) | (A,,2 B,,2) x2 | D,4 x2 | x4 |] %15

